X: 1
T: Farewell To The Trader
M: 6/8
L: 1/8
R: jig
K: Dmaj
A,|:D2D DEF|DFA A2 d|BAG FED|GFE DCA,|
D2D DEF|DFA ABd|BAG FED|~B,3 CB,A,:|
|:D2A AGF|G2G EFG|FAF DEF|EFD B,2C|
D2A AGF|GFG EFG|FAd BAF|GFE DFA:|
|:B2B dcB|A2A FGA|GFG EFG|FEF DFA|
BDB dcB|Adf ~g2 f|edc BAc|[1 dAF DFA:|[2 dAF D2||
